src/assets/icons/building.svg

<svg width="24" height="24" viewBox="0 0 24 24" fill="none" xmlns="http://www.w3.org/2000/svg">
<path d="M 12.0005 10.5987 H 12.0075 M 12.0005 13.3987 H 12.0075 M 12.0005 7.7987 H 12.0075 M 14.8005 10.5987 H 14.8075 M 14.8005 13.3987 H 14.8075 M 14.8005 7.7987 H 14.8075 M 9.2005 10.5987 H 9.2075 M 9.2005 13.3987 H 9.2075 M 9.2005 7.7987 H 9.2075 M 9.9005 18.9987 V 16.8987 C 9.9005 16.7130 9.9743 16.5350 10.1055 16.4037 C 10.2368 16.2724 10.4149 16.1987 10.6005 16.1987 H 13.4005 C 13.5862 16.1987 13.7642 16.2724 13.8955 16.4037 C 14.0268 16.5350 14.1005 16.7130 14.1005 16.8987 V 18.9987 M 7.8005 4.9987 H 16.2005 C 16.9737 4.9987 17.6005 5.6255 17.6005 6.3987 V 17.5987 C 17.6005 18.3719 16.9737 18.9987 16.2005 18.9987 H 7.8005 C 7.0273 18.9987 6.4005 18.3719 6.4005 17.5987 V 6.3987 C 6.4005 5.6255 7.0273 4.9987 7.8005 4.9987 Z" stroke="#314158" stroke-width="1.5" stroke-linecap="round" stroke-linejoin="round"/>
</svg>

<svg fill="none" viewBox="0 0 24 24"><path stroke="currentColor" stroke-linecap="round" stroke-linejoin="round" stroke-width="1.5" d="M12 10.599h.008m-.007 2.8h.007M12 7.799h.007m2.793 2.8h.006m-.007 2.8h.007m-.007-5.6h.007m-5.607 2.8h.008m-.008 2.8h.008m-.008-5.6h.008m.692 11.2v-2.1a.7.7 0 0 1 .7-.7h2.8a.7.7 0 0 1 .7.7v2.1m-6.3-14h8.4a1.4 1.4 0 0 1 1.4 1.4v11.2a1.4 1.4 0 0 1-1.4 1.4H7.8a1.4 1.4 0 0 1-1.4-1.4v-11.2a1.4 1.4 0 0 1 1.4-1.4"/></svg>
